img/payment/answer.svg

<svg width="52" height="40" viewBox="0 0 52 40" fill="none" xmlns="http://www.w3.org/2000/svg">
<g opacity="0.3">
<path fill-rule="evenodd" clip-rule="evenodd" d="M6.99789 0.21433C6.38421 0.495877 5.90605 0.97433 5.61501 1.59794C5.39406 2.07144 5.37445 2.24485 5.37354 3.72845L5.37252 5.3434L3.67097 5.37887C2.15155 5.41041 1.92441 5.43856 1.54945 5.64124C1.01542 5.93 0.550258 6.40165 0.263888 6.94495L0.0392825 7.37113L0.0121591 18.4707C-0.0148626 29.483 -0.0134404 29.5747 0.195623 30.1416C0.346274 30.5502 0.552086 30.846 0.918302 31.1802C1.58216 31.7859 2.15724 31.9588 3.50802 31.9588H4.55263L4.58158 35.7307L4.61063 39.5026L4.89568 39.7513C5.09347 39.9239 5.30416 40 5.58423 40C5.99626 40 7.06148 39.2181 15.1337 32.9905L16.4711 31.9588H29.5151H42.5591L44.156 33.1787C45.0343 33.8496 45.8526 34.4527 45.9746 34.5189C46.2577 34.6723 46.5369 34.6714 46.8731 34.516C47.412 34.2668 47.4289 34.1344 47.4289 30.1699V26.5151L48.7832 26.4792C50.0838 26.4447 50.1571 26.4309 50.6371 26.131C51.1801 25.7918 51.7292 25.0587 51.8954 24.4512C51.963 24.2043 51.9994 20.2946 51.9997 13.2404C52.0004 1.24835 52.0284 1.77196 51.342 0.958247C51.145 0.724742 50.7465 0.413608 50.4563 0.266804L49.9287 0L28.6919 0.00226798C7.55448 0.00453602 7.45289 0.00546416 6.99789 0.21433ZM49.7654 2.26804C49.966 2.47165 49.9686 2.60948 49.9653 13.2216C49.9625 22.6384 49.9432 23.9946 49.8089 24.1753C49.6683 24.3644 49.5039 24.3857 47.8226 24.433L45.9896 24.4845L45.6935 24.8212L45.3972 25.1579V28.3557V31.5534L43.5433 30.1256C37.3557 25.3602 36.257 24.546 35.9333 24.4864C35.7468 24.4521 32.9505 24.4375 29.7193 24.4542L23.8443 24.4845L23.548 24.8212C23.1429 25.2813 23.1432 25.7821 23.5485 26.1935L23.8454 26.4948H29.6471H35.4487L37.6253 28.1701L39.802 29.8454L27.7428 29.8979C21.1102 29.9269 15.6784 29.9617 15.6722 29.9753C15.666 29.9889 13.6317 31.556 11.1516 33.4577L6.64234 36.9155L6.59155 33.7412C6.53873 30.4426 6.51038 30.2318 6.08799 30.0024C5.97797 29.9426 5.16224 29.8969 4.20632 29.8969C2.55017 29.8969 2.51431 29.8922 2.26959 29.6438L2.0202 29.3908V18.6598V7.92876L2.26959 7.67577C2.51055 7.43113 2.56643 7.42268 3.94342 7.42268H5.36795L5.39569 16.0052C5.42139 23.9877 5.43591 24.6109 5.60302 24.9213C5.91692 25.5042 6.4218 26.0045 6.94639 26.2525C7.45218 26.4914 7.47799 26.4929 11.4874 26.4938L15.5197 26.4948L15.7857 26.2627C15.9626 26.1082 16.0703 25.889 16.1075 25.6072C16.1561 25.2396 16.123 25.1379 15.8557 24.8342L15.548 24.4845L11.6201 24.433C7.88087 24.3839 7.68542 24.3719 7.54828 24.1813C7.42608 24.0116 7.40424 22.3506 7.40424 13.2506C7.40424 3.70557 7.42171 2.49474 7.5624 2.29103L7.72047 2.06186H28.6414C49.4268 2.06186 49.5636 2.0632 49.7654 2.26804ZM38.047 5.52412C35.1123 6.24505 33.0196 9.42794 33.2399 12.8357C33.4757 16.4845 36.1445 19.3121 39.3529 19.3121C40.3402 19.3121 41.0398 19.1248 42.0364 18.5939L42.8914 18.1385L43.9768 19.2239C44.9471 20.1943 45.1006 20.3093 45.4251 20.3093C46.1204 20.3093 46.6936 19.5169 46.4087 18.9494C46.343 18.8185 45.8298 18.2392 45.2681 17.662L44.2471 16.6126L44.6089 15.9094C45.911 13.3792 45.7465 10.3275 44.1862 8.07278C42.7161 5.94835 40.3384 4.96124 38.047 5.52412ZM11.5614 6.48691L11.2645 6.78825V13.2474V19.7066L11.5614 20.0079C11.9667 20.4193 12.4602 20.4195 12.9136 20.0086L13.2454 19.7079L13.2752 16.658L13.3048 13.6082H16.1402C17.9624 13.6082 19.0619 13.5682 19.2174 13.4964C19.8305 13.2129 19.945 12.3352 19.4326 11.8464L19.1721 11.5979L16.2342 11.5677L13.2962 11.5374V9.89691V8.25639L16.2342 8.22608L19.1721 8.19588L19.4326 7.94742C19.9098 7.49216 19.8752 6.7967 19.354 6.36825C19.1579 6.20701 18.7928 6.1899 15.4979 6.18784L11.8584 6.18557L11.5614 6.48691ZM25.5128 6.36825C25.2715 6.55711 20.204 18.581 20.204 18.9648C20.204 19.308 20.4345 19.6998 20.7267 19.8531C21.3372 20.1735 21.8871 19.9357 22.2148 19.2096C22.3385 18.9356 22.7077 18.0619 23.0352 17.268L23.6306 15.8247L26.1078 15.7978L28.5848 15.7709L29.3806 17.6786C30.2368 19.731 30.4295 20 31.0444 20C31.5351 20 31.9879 19.5329 31.9879 19.0269C31.9879 18.4956 27.1013 6.73526 26.7486 6.41753C26.435 6.13505 25.8411 6.11144 25.5128 6.36825ZM40.8899 7.79402C42.9872 8.80021 44.0187 11.7775 43.1296 14.2595C42.9912 14.646 42.849 14.9915 42.8137 15.0273C42.7785 15.0632 42.327 14.6656 41.8106 14.1437C40.6297 12.9501 40.1432 12.7828 39.5639 13.3707C39.3677 13.5697 39.3021 13.7423 39.3021 14.0587C39.3021 14.4563 39.3623 14.5424 40.3307 15.5285C40.8964 16.1045 41.3298 16.6242 41.2938 16.6833C41.1427 16.9314 40.0593 17.2419 39.3529 17.2394C38.0408 17.2348 36.853 16.5255 36.0616 15.2739C34.6253 13.0024 35.195 9.55794 37.2436 8.12763C38.3381 7.3634 39.7271 7.23629 40.8899 7.79402ZM27.0023 11.9588L27.7059 13.6598L26.1756 13.6883C25.334 13.704 24.6237 13.6948 24.5972 13.6679C24.557 13.6271 24.9232 12.7045 25.9716 10.2062C26.1088 9.87938 26.1313 9.86485 26.211 10.0515C26.2593 10.1649 26.6154 11.0232 27.0023 11.9588ZM19.3292 24.5319C18.6667 24.8103 18.4805 25.6894 18.9772 26.1935C19.7218 26.9492 20.9696 26.1966 20.6393 25.1911C20.4745 24.6896 19.7824 24.3412 19.3292 24.5319Z" fill="url(#paint0_linear_1710_4848)"/>
<path fill-rule="evenodd" clip-rule="evenodd" d="M6.99789 0.21433C6.38421 0.495877 5.90605 0.97433 5.61501 1.59794C5.39406 2.07144 5.37445 2.24485 5.37354 3.72845L5.37252 5.3434L3.67097 5.37887C2.15155 5.41041 1.92441 5.43856 1.54945 5.64124C1.01542 5.93 0.550258 6.40165 0.263888 6.94495L0.0392825 7.37113L0.0121591 18.4707C-0.0148626 29.483 -0.0134404 29.5747 0.195623 30.1416C0.346274 30.5502 0.552086 30.846 0.918302 31.1802C1.58216 31.7859 2.15724 31.9588 3.50802 31.9588H4.55263L4.58158 35.7307L4.61063 39.5026L4.89568 39.7513C5.09347 39.9239 5.30416 40 5.58423 40C5.99626 40 7.06148 39.2181 15.1337 32.9905L16.4711 31.9588H29.5151H42.5591L44.156 33.1787C45.0343 33.8496 45.8526 34.4527 45.9746 34.5189C46.2577 34.6723 46.5369 34.6714 46.8731 34.516C47.412 34.2668 47.4289 34.1344 47.4289 30.1699V26.5151L48.7832 26.4792C50.0838 26.4447 50.1571 26.4309 50.6371 26.131C51.1801 25.7918 51.7292 25.0587 51.8954 24.4512C51.963 24.2043 51.9994 20.2946 51.9997 13.2404C52.0004 1.24835 52.0284 1.77196 51.342 0.958247C51.145 0.724742 50.7465 0.413608 50.4563 0.266804L49.9287 0L28.6919 0.00226798C7.55448 0.00453602 7.45289 0.00546416 6.99789 0.21433ZM49.7654 2.26804C49.966 2.47165 49.9686 2.60948 49.9653 13.2216C49.9625 22.6384 49.9432 23.9946 49.8089 24.1753C49.6683 24.3644 49.5039 24.3857 47.8226 24.433L45.9896 24.4845L45.6935 24.8212L45.3972 25.1579V28.3557V31.5534L43.5433 30.1256C37.3557 25.3602 36.257 24.546 35.9333 24.4864C35.7468 24.4521 32.9505 24.4375 29.7193 24.4542L23.8443 24.4845L23.548 24.8212C23.1429 25.2813 23.1432 25.7821 23.5485 26.1935L23.8454 26.4948H29.6471H35.4487L37.6253 28.1701L39.802 29.8454L27.7428 29.8979C21.1102 29.9269 15.6784 29.9617 15.6722 29.9753C15.666 29.9889 13.6317 31.556 11.1516 33.4577L6.64234 36.9155L6.59155 33.7412C6.53873 30.4426 6.51038 30.2318 6.08799 30.0024C5.97797 29.9426 5.16224 29.8969 4.20632 29.8969C2.55017 29.8969 2.51431 29.8922 2.26959 29.6438L2.0202 29.3908V18.6598V7.92876L2.26959 7.67577C2.51055 7.43113 2.56643 7.42268 3.94342 7.42268H5.36795L5.39569 16.0052C5.42139 23.9877 5.43591 24.6109 5.60302 24.9213C5.91692 25.5042 6.4218 26.0045 6.94639 26.2525C7.45218 26.4914 7.47799 26.4929 11.4874 26.4938L15.5197 26.4948L15.7857 26.2627C15.9626 26.1082 16.0703 25.889 16.1075 25.6072C16.1561 25.2396 16.123 25.1379 15.8557 24.8342L15.548 24.4845L11.6201 24.433C7.88087 24.3839 7.68542 24.3719 7.54828 24.1813C7.42608 24.0116 7.40424 22.3506 7.40424 13.2506C7.40424 3.70557 7.42171 2.49474 7.5624 2.29103L7.72047 2.06186H28.6414C49.4268 2.06186 49.5636 2.0632 49.7654 2.26804ZM38.047 5.52412C35.1123 6.24505 33.0196 9.42794 33.2399 12.8357C33.4757 16.4845 36.1445 19.3121 39.3529 19.3121C40.3402 19.3121 41.0398 19.1248 42.0364 18.5939L42.8914 18.1385L43.9768 19.2239C44.9471 20.1943 45.1006 20.3093 45.4251 20.3093C46.1204 20.3093 46.6936 19.5169 46.4087 18.9494C46.343 18.8185 45.8298 18.2392 45.2681 17.662L44.2471 16.6126L44.6089 15.9094C45.911 13.3792 45.7465 10.3275 44.1862 8.07278C42.7161 5.94835 40.3384 4.96124 38.047 5.52412ZM11.5614 6.48691L11.2645 6.78825V13.2474V19.7066L11.5614 20.0079C11.9667 20.4193 12.4602 20.4195 12.9136 20.0086L13.2454 19.7079L13.2752 16.658L13.3048 13.6082H16.1402C17.9624 13.6082 19.0619 13.5682 19.2174 13.4964C19.8305 13.2129 19.945 12.3352 19.4326 11.8464L19.1721 11.5979L16.2342 11.5677L13.2962 11.5374V9.89691V8.25639L16.2342 8.22608L19.1721 8.19588L19.4326 7.94742C19.9098 7.49216 19.8752 6.7967 19.354 6.36825C19.1579 6.20701 18.7928 6.1899 15.4979 6.18784L11.8584 6.18557L11.5614 6.48691ZM25.5128 6.36825C25.2715 6.55711 20.204 18.581 20.204 18.9648C20.204 19.308 20.4345 19.6998 20.7267 19.8531C21.3372 20.1735 21.8871 19.9357 22.2148 19.2096C22.3385 18.9356 22.7077 18.0619 23.0352 17.268L23.6306 15.8247L26.1078 15.7978L28.5848 15.7709L29.3806 17.6786C30.2368 19.731 30.4295 20 31.0444 20C31.5351 20 31.9879 19.5329 31.9879 19.0269C31.9879 18.4956 27.1013 6.73526 26.7486 6.41753C26.435 6.13505 25.8411 6.11144 25.5128 6.36825ZM40.8899 7.79402C42.9872 8.80021 44.0187 11.7775 43.1296 14.2595C42.9912 14.646 42.849 14.9915 42.8137 15.0273C42.7785 15.0632 42.327 14.6656 41.8106 14.1437C40.6297 12.9501 40.1432 12.7828 39.5639 13.3707C39.3677 13.5697 39.3021 13.7423 39.3021 14.0587C39.3021 14.4563 39.3623 14.5424 40.3307 15.5285C40.8964 16.1045 41.3298 16.6242 41.2938 16.6833C41.1427 16.9314 40.0593 17.2419 39.3529 17.2394C38.0408 17.2348 36.853 16.5255 36.0616 15.2739C34.6253 13.0024 35.195 9.55794 37.2436 8.12763C38.3381 7.3634 39.7271 7.23629 40.8899 7.79402ZM27.0023 11.9588L27.7059 13.6598L26.1756 13.6883C25.334 13.704 24.6237 13.6948 24.5972 13.6679C24.557 13.6271 24.9232 12.7045 25.9716 10.2062C26.1088 9.87938 26.1313 9.86485 26.211 10.0515C26.2593 10.1649 26.6154 11.0232 27.0023 11.9588ZM19.3292 24.5319C18.6667 24.8103 18.4805 25.6894 18.9772 26.1935C19.7218 26.9492 20.9696 26.1966 20.6393 25.1911C20.4745 24.6896 19.7824 24.3412 19.3292 24.5319Z" fill="white"/>
</g>
<defs>
<linearGradient id="paint0_linear_1710_4848" x1="0" y1="0" x2="39.3855" y2="51.4522" gradientUnits="userSpaceOnUse">
<stop stop-color="#0ABD92"/>
<stop offset="1" stop-color="#009DB8"/>
</linearGradient>
</defs>
</svg>

<svg width="52" height="40" fill="none" xmlns="http://www.w3.org/2000/svg"><g opacity=".3" fill-rule="evenodd" clip-rule="evenodd"><path d="M6.998.214a2.802 2.802 0 00-1.383 1.384c-.22.473-.24.647-.241 2.13l-.001 1.615-1.702.036c-1.52.031-1.747.06-2.122.262-.534.289-.999.76-1.285 1.304l-.225.426-.027 11.1c-.027 11.012-.025 11.104.184 11.67.15.41.356.705.722 1.04.664.605 1.24.778 2.59.778h1.045l.029 3.772.029 3.772.285.248a.974.974 0 00.688.249c.412 0 1.477-.782 9.55-7.01l1.337-1.031H42.56l1.597 1.22c.878.67 1.697 1.274 1.819 1.34.283.153.562.152.898-.003.539-.25.556-.382.556-4.346v-3.655l1.354-.036c1.3-.034 1.374-.048 1.854-.348.543-.34 1.092-1.072 1.258-1.68.068-.247.104-4.156.105-11.21 0-11.993.028-11.469-.658-12.283a3.371 3.371 0 00-.886-.691L49.93 0 28.692.002C7.554.005 7.452.005 6.998.214zm42.767 2.054c.201.204.204.341.2 10.954-.003 9.416-.022 10.773-.156 10.953-.14.19-.305.21-1.986.258l-1.833.052-.297.336-.296.337v6.395l-1.854-1.427c-6.187-4.766-7.286-5.58-7.61-5.64-.186-.034-2.983-.049-6.214-.032l-5.875.03-.296.337c-.405.46-.405.961 0 1.372l.297.302H35.45l2.176 1.675 2.177 1.675-12.06.053c-6.632.029-12.064.064-12.07.077-.006.014-2.04 1.581-4.52 3.483l-4.51 3.458-.05-3.175c-.053-3.298-.082-3.51-.504-3.739-.11-.06-.926-.105-1.882-.105-1.656 0-1.692-.005-1.936-.253l-.25-.253V7.929l.25-.253c.24-.245.296-.253 1.673-.253h1.425l.028 8.582c.025 7.983.04 8.606.207 8.916.314.583.819 1.084 1.343 1.332.506.238.532.24 4.541.24l4.033.002.266-.232c.177-.155.284-.374.322-.656.048-.367.015-.47-.252-.773l-.308-.35-3.928-.051c-3.74-.05-3.935-.061-4.072-.252-.122-.17-.144-1.83-.144-10.93 0-9.545.018-10.756.158-10.96l.158-.23h20.921c20.786 0 20.923.002 21.124.207zM38.047 5.524c-2.935.721-5.027 3.904-4.807 7.312.236 3.649 2.904 6.476 6.113 6.476.987 0 1.687-.187 2.683-.718l.855-.456 1.086 1.086c.97.97 1.124 1.085 1.448 1.085.695 0 1.269-.792.984-1.36-.066-.13-.58-.71-1.14-1.287l-1.022-1.05.362-.703c1.302-2.53 1.137-5.582-.423-7.836-1.47-2.125-3.848-3.112-6.139-2.549zm-26.486.963l-.296.301v12.919l.296.3c.406.412.9.412 1.353.002l.331-.301.03-3.05.03-3.05h2.835c1.822 0 2.922-.04 3.077-.112.614-.283.728-1.16.216-1.65l-.26-.248-2.939-.03-2.938-.03V8.256l2.938-.03 2.938-.031.26-.249c.478-.455.443-1.15-.078-1.579-.196-.161-.561-.178-3.856-.18l-3.64-.002-.297.3zm13.952-.119c-.242.19-5.309 12.213-5.309 12.597 0 .343.23.735.523.888.61.32 1.16.083 1.488-.643.123-.274.493-1.148.82-1.942l.596-1.443 2.477-.027 2.477-.027.796 1.908C30.237 19.73 30.43 20 31.044 20c.491 0 .944-.467.944-.973 0-.531-4.887-12.292-5.24-12.61-.313-.282-.907-.306-1.235-.049zM40.89 7.794c2.097 1.006 3.129 3.984 2.24 6.465-.139.387-.281.732-.316.768-.035.036-.487-.361-1.003-.883-1.181-1.194-1.668-1.361-2.247-.773-.196.199-.262.371-.262.688 0 .397.06.483 1.029 1.47.565.576.999 1.095.963 1.154-.151.248-1.235.559-1.941.556-1.312-.004-2.5-.713-3.291-1.965-1.437-2.272-.867-5.716 1.182-7.146 1.094-.765 2.483-.892 3.646-.334zm-13.888 4.165l.704 1.7-1.53.03c-.842.015-1.552.006-1.579-.021-.04-.04.326-.963 1.375-3.462.137-.327.16-.341.239-.154.048.113.404.971.791 1.907zM19.33 24.532c-.662.278-.849 1.157-.352 1.662.745.755 1.993.003 1.662-1.003-.165-.501-.857-.85-1.31-.66z" fill="url(#paint0_linear_1710_4848)"/><path d="M6.998.214a2.802 2.802 0 00-1.383 1.384c-.22.473-.24.647-.241 2.13l-.001 1.615-1.702.036c-1.52.031-1.747.06-2.122.262-.534.289-.999.76-1.285 1.304l-.225.426-.027 11.1c-.027 11.012-.025 11.104.184 11.67.15.41.356.705.722 1.04.664.605 1.24.778 2.59.778h1.045l.029 3.772.029 3.772.285.248a.974.974 0 00.688.249c.412 0 1.477-.782 9.55-7.01l1.337-1.031H42.56l1.597 1.22c.878.67 1.697 1.274 1.819 1.34.283.153.562.152.898-.003.539-.25.556-.382.556-4.346v-3.655l1.354-.036c1.3-.034 1.374-.048 1.854-.348.543-.34 1.092-1.072 1.258-1.68.068-.247.104-4.156.105-11.21 0-11.993.028-11.469-.658-12.283a3.371 3.371 0 00-.886-.691L49.93 0 28.692.002C7.554.005 7.452.005 6.998.214zm42.767 2.054c.201.204.204.341.2 10.954-.003 9.416-.022 10.773-.156 10.953-.14.19-.305.21-1.986.258l-1.833.052-.297.336-.296.337v6.395l-1.854-1.427c-6.187-4.766-7.286-5.58-7.61-5.64-.186-.034-2.983-.049-6.214-.032l-5.875.03-.296.337c-.405.46-.405.961 0 1.372l.297.302H35.45l2.176 1.675 2.177 1.675-12.06.053c-6.632.029-12.064.064-12.07.077-.006.014-2.04 1.581-4.52 3.483l-4.51 3.458-.05-3.175c-.053-3.298-.082-3.51-.504-3.739-.11-.06-.926-.105-1.882-.105-1.656 0-1.692-.005-1.936-.253l-.25-.253V7.929l.25-.253c.24-.245.296-.253 1.673-.253h1.425l.028 8.582c.025 7.983.04 8.606.207 8.916.314.583.819 1.084 1.343 1.332.506.238.532.24 4.541.24l4.033.002.266-.232c.177-.155.284-.374.322-.656.048-.367.015-.47-.252-.773l-.308-.35-3.928-.051c-3.74-.05-3.935-.061-4.072-.252-.122-.17-.144-1.83-.144-10.93 0-9.545.018-10.756.158-10.96l.158-.23h20.921c20.786 0 20.923.002 21.124.207zM38.047 5.524c-2.935.721-5.027 3.904-4.807 7.312.236 3.649 2.904 6.476 6.113 6.476.987 0 1.687-.187 2.683-.718l.855-.456 1.086 1.086c.97.97 1.124 1.085 1.448 1.085.695 0 1.269-.792.984-1.36-.066-.13-.58-.71-1.14-1.287l-1.022-1.05.362-.703c1.302-2.53 1.137-5.582-.423-7.836-1.47-2.125-3.848-3.112-6.139-2.549zm-26.486.963l-.296.301v12.919l.296.3c.406.412.9.412 1.353.002l.331-.301.03-3.05.03-3.05h2.835c1.822 0 2.922-.04 3.077-.112.614-.283.728-1.16.216-1.65l-.26-.248-2.939-.03-2.938-.03V8.256l2.938-.03 2.938-.031.26-.249c.478-.455.443-1.15-.078-1.579-.196-.161-.561-.178-3.856-.18l-3.64-.002-.297.3zm13.952-.119c-.242.19-5.309 12.213-5.309 12.597 0 .343.23.735.523.888.61.32 1.16.083 1.488-.643.123-.274.493-1.148.82-1.942l.596-1.443 2.477-.027 2.477-.027.796 1.908C30.237 19.73 30.43 20 31.044 20c.491 0 .944-.467.944-.973 0-.531-4.887-12.292-5.24-12.61-.313-.282-.907-.306-1.235-.049zM40.89 7.794c2.097 1.006 3.129 3.984 2.24 6.465-.139.387-.281.732-.316.768-.035.036-.487-.361-1.003-.883-1.181-1.194-1.668-1.361-2.247-.773-.196.199-.262.371-.262.688 0 .397.06.483 1.029 1.47.565.576.999 1.095.963 1.154-.151.248-1.235.559-1.941.556-1.312-.004-2.5-.713-3.291-1.965-1.437-2.272-.867-5.716 1.182-7.146 1.094-.765 2.483-.892 3.646-.334zm-13.888 4.165l.704 1.7-1.53.03c-.842.015-1.552.006-1.579-.021-.04-.04.326-.963 1.375-3.462.137-.327.16-.341.239-.154.048.113.404.971.791 1.907zM19.33 24.532c-.662.278-.849 1.157-.352 1.662.745.755 1.993.003 1.662-1.003-.165-.501-.857-.85-1.31-.66z" fill="#fff"/></g><defs><linearGradient id="paint0_linear_1710_4848" x1="0" y1="0" x2="39.386" y2="51.452" gradientUnits="userSpaceOnUse"><stop stop-color="#0ABD92"/><stop offset="1" stop-color="#009DB8"/></linearGradient></defs></svg>
